common/icons/svgs/tripadvisor.svg

<svg xmlns="http://www.w3.org/2000/svg" width="24" height="24" viewBox="0 0 24 24">
  <g fill="none" fill-rule="evenodd" transform="translate(-216 -360)">
    <rect width="504" height="450" fill="#FFF"/>
    <g transform="translate(216 360)">
      <rect width="24" height="24"/>
      <g fill="#000" fill-rule="nonzero" transform="translate(0 5)">
        <circle cx="6.489" cy="7.911" r="1"/>
        <circle cx="17.991" cy="7.893" r="1"/>
        <path d="M6.63111111,5.12888889 C5.10060024,5.12889675 3.85942352,6.36875875 3.8577936,7.89926875 C3.85616367,9.42977875 5.09469679,10.6722815 6.62520417,10.6755492 C8.15571155,10.6788169 9.39953896,9.44161412 9.40444444,7.91111111 C9.40680687,7.17403847 9.11566048,6.46634457 8.59530332,5.94431959 C8.07494615,5.42229461 7.36818753,5.1288851 6.63111111,5.12888889 L6.63111111,5.12888889 Z M6.63111111,9.83111111 C5.57072439,9.83111111 4.71111111,8.97149783 4.71111111,7.91111111 C4.71111111,6.85072439 5.57072439,5.99111111 6.63111111,5.99111111 C7.69149783,5.99111111 8.55111111,6.85072439 8.55111111,7.91111111 C8.55111111,8.97149783 7.69149783,9.83111111 6.63111111,9.83111111 L6.63111111,9.83111111 Z"/>
        <path d="M23.9022222,2.28444444 L20.08,2.28444444 C17.7992269,0.839636205 15.1438049,0.0977255191 12.4444444,0.151111111 C9.67750407,0.0932055516 6.95248908,0.833866478 4.59555556,2.28444444 L0.888888889,2.28444444 C1.45063367,2.94172173 1.84415706,3.72571794 2.03555556,4.56888889 C0.106240829,7.08239815 0.579824072,10.6840186 3.09333333,12.6133333 C5.60684259,14.5426481 9.20846305,14.0690648 11.1377778,11.5555556 C11.6181295,12.1138815 12.0549653,12.708216 12.4444444,13.3333333 C12.4444444,13.3333333 13.2622222,12.1066667 13.7244444,11.5555556 C15.64885,14.0592464 19.2385314,14.52885 21.7422222,12.6044444 C24.2459131,10.6800389 24.7155166,7.09035753 22.7911111,4.58666667 C22.9693722,3.74053276 23.3506955,2.95043089 23.9022222,2.28444444 Z M6.69333333,12.5244444 C4.15036889,12.5244444 2.08888889,10.4629644 2.08888889,7.92 C2.08888889,5.37703555 4.15036889,3.31555556 6.69333333,3.31555556 C9.23629778,3.31555556 11.2977778,5.37703555 11.2977778,7.92 C11.2977778,9.14117459 10.8126681,10.3123331 9.94916722,11.1758339 C9.08566639,12.0393347 7.91450793,12.5244444 6.69333333,12.5244444 L6.69333333,12.5244444 Z M6.69333333,2.20444444 C8.51664988,1.45371605 10.4727628,1.07881961 12.4444444,1.10222222 C14.3377978,1.08604205 16.2140679,1.46129605 17.9555556,2.20444444 C14.8790578,2.31456008 12.4424744,4.84153285 12.4444444,7.92 C12.444461,6.39950879 11.8386289,4.94167898 10.7609799,3.86903452 C9.6833309,2.79639007 8.22269688,2.1973504 6.70222222,2.20444444 L6.69333333,2.20444444 Z M18.1333333,12.5244444 C15.5903689,12.5244444 13.5288889,10.4629644 13.5288889,7.92 C13.5288889,5.37703555 15.5903689,3.31555556 18.1333333,3.31555556 C20.6762978,3.31555556 22.7377778,5.37703555 22.7377778,7.92 C22.7377778,9.14117459 22.2526681,10.3123331 21.3891672,11.1758339 C20.5256664,12.0393347 19.3545079,12.5244444 18.1333333,12.5244444 L18.1333333,12.5244444 Z"/>
        <path d="M18.1333333,5.12 C16.6016636,5.12 15.36,6.36166363 15.36,7.89333333 C15.36,9.42500304 16.6016636,10.6666667 18.1333333,10.6666667 C19.665003,10.6666667 20.9066667,9.42500304 20.9066667,7.89333333 C20.9066667,6.36166363 19.665003,5.12 18.1333333,5.12 L18.1333333,5.12 Z M18.1333333,9.82222222 C17.0729466,9.82222222 16.2133333,8.96260894 16.2133333,7.90222222 C16.2133333,6.8418355 17.0729466,5.98222222 18.1333333,5.98222222 C19.1937201,5.98222222 20.0533333,6.8418355 20.0533333,7.90222222 C20.0291836,8.94521252 19.1766031,9.77805733 18.1333333,9.77777778 L18.1333333,9.82222222 Z"/>
      </g>
    </g>
  </g>
</svg>

<svg xmlns="http://www.w3.org/2000/svg" viewbox="0 0 24 24"><g class="icon__shape" fill-rule="nonzero" transform="translate(0 5)"><circle cx="6.489" cy="7.911" r="1"/><circle cx="17.991" cy="7.893" r="1"/><path d="M6.631 5.129a2.773 2.773 0 1 0 0 5.547 2.773 2.773 0 0 0 0-5.547zm0 4.702a1.92 1.92 0 1 1 0-3.84 1.92 1.92 0 0 1 0 3.84z"/><path d="M23.902 2.284H20.08A13.76 13.76 0 0 0 12.444.151a14.4 14.4 0 0 0-7.848 2.133H.889A5.333 5.333 0 0 1 2.036 4.57a5.737 5.737 0 1 0 9.102 6.987c.48.558.917 1.152 1.306 1.777 0 0 .818-1.226 1.28-1.777a5.718 5.718 0 0 0 9.067-6.97 5.333 5.333 0 0 1 1.111-2.302zM6.693 12.524a4.604 4.604 0 1 1 0-9.208 4.604 4.604 0 0 1 0 9.208zm0-10.32a14.649 14.649 0 0 1 5.751-1.102c1.894-.016 3.77.36 5.512 1.102a5.716 5.716 0 0 0-5.512 5.716 5.716 5.716 0 0 0-5.742-5.716h-.009zm11.44 10.32a4.604 4.604 0 1 1 0-9.208 4.604 4.604 0 0 1 0 9.208z"/><path d="M18.133 5.12a2.773 2.773 0 1 0 0 5.547 2.773 2.773 0 0 0 0-5.547zm0 4.702a1.92 1.92 0 1 1 1.92-1.92 1.92 1.92 0 0 1-1.92 1.876v.044z"/></g></svg>
